X:215
T:I'm On My Way Back to the Old Home
C:Chris Thile (Merlefest Allstar Jam, 1998)
N:Transcribed by Steve Keating
R:bluegrass
L:1/8
Q:1/4=275
M:4/4
K:Bb
z8 | GF F2 FG Bc | "Bb"df z2 fg f2 | cd ff dc BG | "Eb"cG Bc BG BG | FE zF GB GF | 
"Bb"AG FD FG Bc | _d/=d/f fd fg bf | "F"ag fd gd fg | fd ff ab c'2 | "Bb"z2 c'/d'/d' d'd' d'd' | 
d'c' bf bc' d'd' | "Eb"e'e' e'e' e'd' z2 | c'd' zc' d'c' bc' | "Bb"c'd' f'd' f'g' b'f' | 
"F"g'g' f'd' f'd' c'2 | "Bb"_d'=d' g'd' f'_d' =d'f' | _d'c' bg c'g bg | bf gb fe _d=d | 
b8 | z8 | z8 | 


